icons/unlink-24.svg

<svg width="24" height="24" viewBox="0 0 24 24" fill="none" xmlns="http://www.w3.org/2000/svg">
<path d="M20.3471 3.65291C18.8098 2.1157 16.3175 2.1157 14.7803 3.65291L13.0303 5.40295C12.7374 5.69584 12.2625 5.69584 11.9696 5.40295C11.6767 5.11006 11.6767 4.63518 11.9696 4.34229L13.7196 2.59225C15.8426 0.469249 19.2847 0.469249 21.4077 2.59225C23.5307 4.71526 23.5307 8.15733 21.4077 10.2803L19.844 11.844C19.5511 12.1369 19.0762 12.1369 18.7833 11.844C18.4905 11.5511 18.4905 11.0763 18.7833 10.7834L20.3471 9.21967C21.8843 7.68245 21.8843 5.19013 20.3471 3.65291Z" fill="black"/>
<path d="M9.78607 12.3687C10.1115 12.1125 10.5831 12.1686 10.8393 12.4941C10.9354 12.6162 11.0399 12.7341 11.1529 12.8471C12.5006 14.1948 14.5387 14.4337 16.0439 13.5047L12.121 10.6472C12.1017 10.6359 12.0827 10.6236 12.0641 10.6103C10.645 9.59667 8.61042 9.82282 7.28033 11.1529L3.65291 14.7803C2.1157 16.3175 2.1157 18.8099 3.65291 20.3471C5.19013 21.8843 7.68245 21.8843 9.21967 20.3471L12.2197 17.3471C12.5126 17.0542 12.9874 17.0542 13.2803 17.3471C13.5732 17.64 13.5732 18.1149 13.2803 18.4077L10.2803 21.4077C8.15733 23.5308 4.71526 23.5308 2.59225 21.4077C0.469249 19.2847 0.469249 15.8427 2.59225 13.7197L6.21967 10.0923C7.05601 9.25592 8.12283 8.72324 9.23443 8.54469L2.18344 3.40878C1.84863 3.16491 1.77492 2.69579 2.01879 2.36098C2.26266 2.02617 2.73178 1.95245 3.06659 2.19633L23.3166 16.9463C23.6514 17.1902 23.7251 17.6593 23.4812 17.9941C23.2374 18.3289 22.7683 18.4027 22.4334 18.1588L17.3241 14.4372C15.1693 16.146 12.0465 15.862 10.0922 13.9077C9.93721 13.7527 9.79332 13.5904 9.66065 13.4219C9.40445 13.0964 9.4606 12.6249 9.78607 12.3687Z" fill="black"/>
</svg>

<svg xmlns="http://www.w3.org/2000/svg" width="24" height="24" viewBox="0 0 24 24"><path d="M20.347 3.653a3.936 3.936 0 00-5.567 0l-1.75 1.75a.75.75 0 01-1.06-1.06l1.75-1.75a5.436 5.436 0 017.688 7.687l-1.564 1.564a.75.75 0 01-1.06-1.06l1.563-1.564a3.936 3.936 0 000-5.567zM9.786 12.369a.75.75 0 011.053.125c.096.122.2.24.314.353 1.348 1.348 3.386 1.587 4.89.658l-3.922-2.858a.745.745 0 01-.057-.037c-1.419-1.013-3.454-.787-4.784.543L3.653 14.78a3.936 3.936 0 005.567 5.567l3-3a.75.75 0 111.06 1.06l-3 3a5.436 5.436 0 11-7.688-7.687l3.628-3.628a5.517 5.517 0 013.014-1.547l-7.05-5.136a.75.75 0 01.883-1.213l20.25 14.75a.75.75 0 01-.884 1.213l-5.109-3.722c-2.155 1.709-5.278 1.425-7.232-.53a5.491 5.491 0 01-.431-.485.75.75 0 01.125-1.053z"/></svg>
